packages/icons/raw/imported/MediaTuner.svg

<svg width="32" height="32" viewBox="0 0 32 32" fill="none" xmlns="http://www.w3.org/2000/svg">
<path d="M10.8846 14.5385L10.8846 25.5M10.8846 6.5V9.42308M21.1154 22.5769V25.5M21.1154 6.5V17.4615M8.5 14.5385H13.2692C14.3738 14.5385 15.2692 13.6431 15.2692 12.5385V11.4231C15.2692 10.3185 14.3738 9.4231 13.2692 9.4231H8.5C7.39543 9.4231 6.5 10.3185 6.5 11.4231V12.5385C6.5 13.643 7.39543 14.5385 8.5 14.5385ZM18.7308 22.5769H23.5C24.6046 22.5769 25.5 21.6815 25.5 20.5769V19.4615C25.5 18.357 24.6046 17.4615 23.5 17.4615H18.7308C17.6262 17.4615 16.7308 18.357 16.7308 19.4615V20.5769C16.7308 21.6815 17.6262 22.5769 18.7308 22.5769Z" stroke="black" stroke-linecap="round"/>
</svg>

<svg width="32" height="32" fill="none" xmlns="http://www.w3.org/2000/svg"><path d="M10.885 14.539V25.5m0-19v2.923m10.23 13.154V25.5m0-19v10.962M8.5 14.539h4.77a2 2 0 0 0 2-2v-1.116a2 2 0 0 0-2-2H8.5a2 2 0 0 0-2 2v1.116a2 2 0 0 0 2 2Zm10.23 8.038h4.77a2 2 0 0 0 2-2V19.46a2 2 0 0 0-2-2h-4.77a2 2 0 0 0-2 2v1.116a2 2 0 0 0 2 2Z" stroke="#000" stroke-linecap="round"/></svg>
